X: 38258
T: St Patrick's Breastplate
R: waltz
M: 3/4
K: Dminor
A2|"Dm"d4 d2|"F"c2 A2 c2|"Bb"f2 a2 gf|"C"f2 e2 e2|"C"g2 e2 c2|"Am"c2 e2 g2|
"Dm"f4 f2|"C"e4 A2|"Bb"d3 e "Dm"fd|"Am"c2 A2 "Dm"F2|"Bb"f4 c2|"Bb"d2 "C"e2 fg|
"F"a4 ga|"Dm"f2 d2 "C"e2|"Dm"d4 d2|d4||c2|"F"f4 f2|"Dm"f4 ga|"Gm"g4 ^f2|g4 a2|
"Dm" d4 d2|"Am"c2 e2 g2|"Bb"f4 f2|"Am"e4 A2|"Dm"d4 (3efd|"Am"c2 A2 "Dm"F2|
f4 c2|"Gm"d2 e2 fg|"Dm"a4 ga|"Bb"f2 d2 "C"e2|"Bb"d4 d2|"Dm"d4||

